X: 1
T: Katrilli Suomusj\"arvelt\"a
O: Finland
R: polka
Z: 2007 John Chambers <jc@trillian.mit.edu>
S: printed MS of unknown origin
N: Soittanut (played by) Veikko Laine
M: 2/4
L: 1/16
K: D
fg \
| "D"a2f2 "G"d2B2 | "D"A4 Agfg | "D"a2f2     d2F2 | "Em"G4 G4 \
| "G"B4      BdcB | "D"A4 A2fg | "D"afef "A7"g2e2 |1 "D"f4 f2 :|2 "D"d4 d2 :|
|: z2 \
| "D"F2FG F2G2 |    A4 A2FA | "D"d2cd     e2d2 | "G"B4 B4 \
|"Em"E2E2 E2DE |"A7"G4 G2FG |    cBAB     c2B2 | "D"F4 F4 |
| "D"F2FG F2G2 |    A4 A2FA |"Bm"d2cd     e2d2 |"Em"B4 B4 \
| "G"B4   BdcB | "D"A4 A2fg |    afef "A7"g2c2 | "D"d4 d2 :|
